localPackages/DesignSystem/Sources/DesignSystem/Resources/Assets.xcassets/IconSet/ic-card-identity.imageset/ic-card-identity.svg

<svg width="24" height="24" viewBox="0 0 24 24" fill="none" xmlns="http://www.w3.org/2000/svg">
<g id="ic-card-identity">
<path id="Icon" fill-rule="evenodd" clip-rule="evenodd" d="M19.5 6H4.5C3.67157 6 3 6.67157 3 7.5V16.5C3 17.3284 3.67157 18 4.5 18H19.5C20.3284 18 21 17.3284 21 16.5V7.5C21 6.67157 20.3284 6 19.5 6ZM4.5 4.5C2.84315 4.5 1.5 5.84315 1.5 7.5V16.5C1.5 18.1569 2.84315 19.5 4.5 19.5H19.5C21.1569 19.5 22.5 18.1569 22.5 16.5V7.5C22.5 5.84315 21.1569 4.5 19.5 4.5H4.5ZM8.25 10.5C8.66421 10.5 9 10.1642 9 9.75C9 9.33579 8.66421 9 8.25 9C7.83579 9 7.5 9.33579 7.5 9.75C7.5 10.1642 7.83579 10.5 8.25 10.5ZM8.25 12C9.49264 12 10.5 10.9926 10.5 9.75C10.5 8.50736 9.49264 7.5 8.25 7.5C7.00736 7.5 6 8.50736 6 9.75C6 10.9926 7.00736 12 8.25 12ZM6 15C6 14.5858 6.33579 14.25 6.75 14.25H9.75C10.1642 14.25 10.5 14.5858 10.5 15V15.75C10.5 16.1642 10.8358 16.5 11.25 16.5C11.6642 16.5 12 16.1642 12 15.75V15C12 13.7574 10.9926 12.75 9.75 12.75H6.75C5.50736 12.75 4.5 13.7574 4.5 15V15.75C4.5 16.1642 4.83579 16.5 5.25 16.5C5.66421 16.5 6 16.1642 6 15.75V15ZM13.5 10.5C13.5 10.0858 13.8358 9.75 14.25 9.75H18C18.4142 9.75 18.75 10.0858 18.75 10.5C18.75 10.9142 18.4142 11.25 18 11.25H14.25C13.8358 11.25 13.5 10.9142 13.5 10.5ZM14.25 12.75C13.8358 12.75 13.5 13.0858 13.5 13.5C13.5 13.9142 13.8358 14.25 14.25 14.25H18C18.4142 14.25 18.75 13.9142 18.75 13.5C18.75 13.0858 18.4142 12.75 18 12.75H14.25Z" fill="#0F0F0F"/>
</g>
</svg>

<svg xmlns="http://www.w3.org/2000/svg" width="24" height="24" viewBox="0 0 24 24">
  <g class="ic-card-identity">
    <path fill-rule="evenodd" d="M19.5 6h-15A1.5 1.5 0 0 0 3 7.5v9A1.5 1.5 0 0 0 4.5 18h15a1.5 1.5 0 0 0 1.5-1.5v-9A1.5 1.5 0 0 0 19.5 6Zm-15-1.5a3 3 0 0 0-3 3v9a3 3 0 0 0 3 3h15a3 3 0 0 0 3-3v-9a3 3 0 0 0-3-3h-15Zm3.75 6a.75.75 0 1 0 0-1.5.75.75 0 0 0 0 1.5Zm0 1.5a2.25 2.25 0 1 0 0-4.5 2.25 2.25 0 0 0 0 4.5ZM6 15a.75.75 0 0 1 .75-.75h3a.75.75 0 0 1 .75.75v.75a.75.75 0 0 0 1.5 0V15a2.25 2.25 0 0 0-2.25-2.25h-3A2.25 2.25 0 0 0 4.5 15v.75a.75.75 0 0 0 1.5 0V15Zm7.5-4.5a.75.75 0 0 1 .75-.75H18a.75.75 0 0 1 0 1.5h-3.75a.75.75 0 0 1-.75-.75Zm.75 2.25a.75.75 0 0 0 0 1.5H18a.75.75 0 0 0 0-1.5h-3.75Z" class="Icon"/>
  </g>
</svg>
